X: 17
T: No_115_Here_I_Come_Again.krn
%%abc-version 2.0
%%abcx-abcm2ps-target-version 5.9.1 (29 Sep 2008)
%%abc-creator hum2abc beta
%%abcx-conversion-date 2020/08/10 18:54:57
%%gracespace 0 6 6
%%humdrum-veritas 3680055053
%%humdrum-veritas-data 1763420159
%%linebreak <none>
%%barnumbers 0
L: 1/8
M: 2/4
%%staves {1 2}
V: 1 clef=bass
V: 2 clef=bass
K: Ab
[V:1] [K:clef=bass][M:2/4](3EEE F3/E/ | 
[V:2] [K:clef=bass][M:2/4](3!accent!G,, z G,, (3!accent!G,, z G,, | 
[V:1] E4 ||  
[V:2] z4 ||  
[V:1] [M:3/4](3DDC B,>A,A,2 ||  
[V:2] [M:3/4]z6 ||  
[V:1] [M:2/4](3CA,A, B,3/A,/ | 
[V:2] [M:2/4]z4 | 
[V:1] A,>A,A,2- | 
[V:2] z4 | 
[V:1] A,4 ]|:  
[V:2] z4 ]|:  
[V:1] (3DDB, D3/D/ | 
[V:2] z4 | 
[V:1] B,4 | 
[V:2] z4 | 
[V:1] A,/A,/B, (3!accent!DB,D | 
[V:2] z4 | 
[V:1] A,4 | 
[V:2] z4 | 
[V:1] (3F,F,E, F,3/E,/ | 
[V:2] z4 | 
[V:1] E,4 | 
[V:2] z4 | 
[V:1] (3D,D,C, B,,3/A,,/ | 
[V:2] z4 | 
[V:1] A,,>A,,A,,2- | 
[V:2] z4 | 
[V:1] A,,4 | 
[V:2] z4 | 
[V:1] (3A,A,A, B,3/A,/ | 
[V:2] z4 | 
[V:1] A,>A,A,2- | 
[V:2] z4 | 
[V:1] A,4 :|]  
[V:2] z4 :|]  


